X: 208
T: Guan deng
%%abc-version 2.0
%%abcx-abcm2ps-target-version 5.9.1 (29 Sep 2008)
%%abc-creator hum2abc beta
%%abcx-conversion-date 2013/10/02 07:52:29
%%abc-edited-by Helmut Schaffrath
%%humdrum-veritas 418502356
%%humdrum-veritas-data 4178240644
%%continueall 1
%%barnumbers 0
L: 1/8
M: 2/4
K: C
C2C A, [I:setbarnb 1]| 
G,2G,2 | 
C D C A, | 
G,4 | 
EG2A | 
G2E E | 
D B, A, G, | 
C3E | 
D C A, E, | 
G,4 |]  



